images/logotypes/logo_2.svg

<svg width="262" height="70" viewBox="0 0 262 70" fill="none" xmlns="http://www.w3.org/2000/svg">
<rect x="0.569336" width="260.861" height="70" rx="35" fill="white"/>
<path d="M67.7013 32.8265C67.196 33.3349 66.809 33.9485 66.568 34.6235C66.3269 35.2985 66.2377 36.0184 66.3066 36.7319L66.2826 36.7079C66.3536 37.5477 66.2402 38.3928 65.9508 39.1844C65.6613 39.9759 65.2026 40.6947 64.6068 41.2907C64.0108 41.8865 63.292 42.3453 62.5004 42.6347C61.7089 42.9241 60.8637 43.0375 60.024 42.9665L60.048 42.9905C59.0434 42.8971 58.0345 43.1156 57.1586 43.6165C56.2829 44.1175 55.5829 44.8763 55.1542 45.7896C54.7256 46.7029 54.5889 47.7261 54.763 48.72C54.9373 49.7137 55.4137 50.6296 56.1274 51.3427C56.8412 52.0557 57.7574 52.5313 58.7513 52.7045C59.7453 52.8779 60.7684 52.7403 61.6813 52.3108C62.5942 51.8812 63.3524 51.1807 63.8525 50.3044C64.3526 49.4281 64.5704 48.4191 64.476 47.4145L64.5013 47.4385C64.4304 46.5988 64.5436 45.7536 64.833 44.962C65.1225 44.1705 65.5813 43.4517 66.1772 42.8557C66.7732 42.2599 67.492 41.8011 68.2834 41.5117C69.075 41.2223 69.9201 41.1089 70.76 41.1799L70.7346 41.1559C71.5552 41.2296 72.3812 41.0951 73.136 40.7647C73.8906 40.4343 74.5498 39.9187 75.0522 39.2657C75.5546 38.6128 75.8842 37.8435 76.0101 37.0293C76.1361 36.2151 76.0545 35.3823 75.7729 34.6079C75.4913 33.8336 75.0188 33.1429 74.3992 32.5999C73.7796 32.0568 73.0329 31.6789 72.2284 31.5013C71.4238 31.3237 70.5874 31.352 69.7968 31.5836C69.0061 31.8153 68.2868 32.2428 67.7053 32.8265H67.7013Z" fill="#252525"/>
<path d="M57.8655 39.8466L57.8401 39.8226C58.5539 39.8945 59.2747 39.8069 59.9505 39.5661C60.6263 39.3253 61.2401 38.9374 61.7476 38.4303C62.2549 37.9233 62.6435 37.3097 62.8847 36.6341C63.126 35.9585 63.2141 35.2378 63.1428 34.5239L63.1681 34.5479C63.0972 33.7081 63.2105 32.863 63.4999 32.0714C63.7893 31.2799 64.2481 30.5611 64.844 29.9651C65.44 29.3693 66.1588 28.9105 66.9503 28.6211C67.7419 28.3316 68.5869 28.2184 69.4268 28.2893L69.4015 28.2653C70.4061 28.3597 71.4153 28.1418 72.2916 27.6414C73.168 27.1411 73.8685 26.3826 74.2979 25.4694C74.7272 24.5563 74.8644 23.5329 74.6908 22.5389C74.5172 21.5449 74.0412 20.6286 73.3276 19.9151C72.6141 19.2016 71.6979 18.7255 70.7038 18.5519C69.7099 18.3783 68.6865 18.5155 67.7733 18.9449C66.8601 19.3742 66.1017 20.0748 65.6013 20.9511C65.1009 21.8273 64.8831 22.8366 64.9775 23.8413L64.9535 23.8159C65.0245 24.6558 64.9115 25.5011 64.6221 26.2927C64.3328 27.0843 63.874 27.8032 63.2781 28.3993C62.6821 28.9951 61.9632 29.4539 61.1716 29.7433C60.3799 30.0326 59.5347 30.1457 58.6948 30.0746L58.7188 30.0999C58.0051 30.0281 57.2841 30.1157 56.6084 30.3565C55.9327 30.5971 55.3188 30.9851 54.8113 31.4922C54.3039 31.9993 53.9155 32.6129 53.6741 33.2885C53.4329 33.9641 53.3448 34.6847 53.4161 35.3986L53.3921 35.3746C53.4628 36.2143 53.3493 37.0594 53.0599 37.8509C52.7703 38.6422 52.3116 39.361 51.7157 39.9569C51.1198 40.5527 50.4011 41.0114 49.6097 41.301C48.8183 41.5905 47.9732 41.7039 47.1335 41.6333L47.1575 41.6573C46.1528 41.5629 45.1435 41.7807 44.2672 42.2811C43.391 42.7815 42.6904 43.5399 42.261 44.4531C41.8317 45.3663 41.6944 46.3897 41.8681 47.3837C42.0417 48.3777 42.5178 49.2939 43.2313 50.0074C43.9448 50.721 44.861 51.197 45.8551 51.3706C46.8491 51.5442 47.8724 51.407 48.7856 50.9777C49.6987 50.5483 50.4572 49.8478 50.9576 48.9715C51.458 48.0951 51.6759 47.0859 51.5815 46.0813L51.6068 46.1053C51.5359 45.2654 51.6492 44.4203 51.9387 43.6287C52.228 42.8373 52.6868 42.1185 53.2827 41.5225C53.8787 40.9266 54.5975 40.4678 55.3889 40.1785C56.1805 39.889 57.0256 39.7757 57.8655 39.8466Z" fill="#252525"/>
<path d="M48.9292 37.1706C49.4346 36.6623 49.8215 36.0487 50.0623 35.3737C50.3032 34.6986 50.392 33.9786 50.3225 33.2653L50.3479 33.2893C50.2769 32.4493 50.3902 31.6038 50.6798 30.8121C50.9694 30.0203 51.4284 29.3014 52.0247 28.7054C52.6209 28.1094 53.34 27.6508 54.1319 27.3615C54.9237 27.0722 55.7692 26.9593 56.6092 27.0306L56.5839 27.0066C57.5881 27.1007 58.5971 26.8827 59.4729 26.3824C60.3488 25.8821 61.0489 25.1238 61.4781 24.2109C61.9072 23.298 62.0443 22.275 61.8707 21.2814C61.6971 20.2878 61.2211 19.3719 60.5079 18.6586C59.7947 17.9454 58.8787 17.4695 57.8851 17.2958C56.8915 17.1222 55.8684 17.2593 54.9556 17.6884C54.0427 18.1175 53.2844 18.8177 52.7841 19.6936C52.2837 20.5694 52.0657 21.5783 52.1599 22.5826L52.1359 22.5586C52.2068 23.3984 52.0935 24.2436 51.804 25.0351C51.5145 25.8266 51.0559 26.5454 50.4599 27.1414C49.864 27.7373 49.1452 28.196 48.3537 28.4854C47.5621 28.7749 46.717 28.8882 45.8772 28.8173L45.9012 28.8413C45.0806 28.7677 44.2547 28.9025 43.5001 29.233C42.7455 29.5636 42.0865 30.0793 41.5842 30.7323C41.0819 31.3853 40.7526 32.1546 40.6268 32.9688C40.5009 33.783 40.5827 34.6158 40.8643 35.3899C41.146 36.1642 41.6186 36.8547 42.2383 37.3977C42.8579 37.9408 43.6046 38.3185 44.4091 38.4961C45.2136 38.6736 46.0499 38.6451 46.8405 38.4135C47.6311 38.1818 48.3504 37.7544 48.9319 37.1706H48.9292Z" fill="#252525"/>
<path d="M90.2319 23.8718H94.1919V43.1425H90.2319V23.8718Z" fill="#252525"/>
<path d="M96.4348 36.5438C96.4293 35.159 96.8349 33.8035 97.6002 32.6494C98.3656 31.4952 99.4562 30.5942 100.734 30.0604C102.012 29.5266 103.419 29.384 104.778 29.6508C106.137 29.9176 107.386 30.5816 108.368 31.559C109.349 32.5362 110.018 33.7827 110.29 35.1406C110.562 36.4984 110.426 37.9066 109.897 39.1866C109.368 40.4664 108.472 41.5608 107.32 42.3307C106.169 43.1007 104.816 43.5118 103.431 43.5118C102.512 43.5223 101.599 43.3494 100.748 43.0032C99.896 42.6571 99.1218 42.1447 98.4705 41.496C97.819 40.8472 97.3036 40.0751 96.9541 39.2248C96.6045 38.3746 96.428 37.4631 96.4348 36.5438ZM106.467 36.5438C106.45 35.9468 106.258 35.368 105.914 34.8796C105.571 34.3914 105.091 34.0151 104.534 33.7982C103.978 33.5811 103.37 33.5328 102.787 33.6595C102.203 33.7862 101.67 34.0819 101.253 34.51C100.837 34.938 100.556 35.4794 100.446 36.0663C100.335 36.6531 100.4 37.2595 100.633 37.8096C100.865 38.3598 101.254 38.8291 101.752 39.1591C102.25 39.4891 102.834 39.6651 103.431 39.6651C103.84 39.676 104.246 39.602 104.626 39.4479C105.004 39.2938 105.347 39.0628 105.633 38.7696C105.918 38.4763 106.139 38.1271 106.283 37.744C106.426 37.361 106.489 36.9523 106.467 36.5438Z" fill="#252525"/>
<path d="M126.209 29.9438V42.4771C126.209 46.9118 122.751 48.7864 119.24 48.7864C118.004 48.879 116.766 48.6292 115.663 48.0648C114.559 47.5003 113.632 46.6428 112.984 45.5864L116.363 43.6331C116.635 44.1838 117.069 44.638 117.607 44.9352C118.145 45.2323 118.761 45.3582 119.372 45.2958C119.763 45.3499 120.16 45.3155 120.536 45.1951C120.912 45.0747 121.255 44.8714 121.542 44.6003C121.828 44.3291 122.05 43.9971 122.191 43.6286C122.331 43.2602 122.387 42.8648 122.355 42.4718V41.2651C121.891 41.8324 121.301 42.2832 120.631 42.5812C119.962 42.8792 119.232 43.0162 118.5 42.9811C116.758 42.9262 115.106 42.1958 113.894 40.9443C112.681 39.693 112.003 38.0188 112.003 36.2764C112.003 34.534 112.681 32.8599 113.894 31.6086C115.106 30.3571 116.758 29.6267 118.5 29.5718C119.232 29.5367 119.962 29.6736 120.631 29.9716C121.301 30.2696 121.891 30.7204 122.355 31.2878V29.9411L126.209 29.9438ZM122.356 36.2784C122.383 35.6403 122.218 35.0087 121.882 34.4651C121.547 33.9214 121.056 33.4906 120.474 33.228C119.892 32.9654 119.244 32.8831 118.615 32.9916C117.986 33.1002 117.403 33.3946 116.942 33.8371C116.482 34.2795 116.164 34.8496 116.03 35.4742C115.896 36.0987 115.952 36.7491 116.191 37.3415C116.43 37.9339 116.84 38.4414 117.37 38.7984C117.9 39.1555 118.524 39.3459 119.163 39.3451C119.579 39.3742 119.996 39.3158 120.388 39.1736C120.78 39.0315 121.138 38.8087 121.439 38.5199C121.74 38.231 121.977 37.8823 122.135 37.4962C122.293 37.1102 122.368 36.6954 122.356 36.2784Z" fill="#252525"/>
<path d="M128.452 36.5438C128.446 35.159 128.852 33.8035 129.617 32.6494C130.383 31.4952 131.473 30.5942 132.751 30.0604C134.029 29.5266 135.437 29.384 136.795 29.6508C138.154 29.9176 139.404 30.5816 140.385 31.559C141.366 32.5362 142.035 33.7827 142.307 35.1406C142.58 36.4984 142.443 37.9066 141.914 39.1866C141.385 40.4664 140.489 41.5608 139.338 42.3307C138.186 43.1007 136.833 43.5118 135.448 43.5118C134.529 43.5223 133.616 43.3494 132.765 43.0032C131.913 42.6571 131.139 42.1447 130.488 41.496C129.836 40.8472 129.321 40.0751 128.971 39.2248C128.622 38.3746 128.445 37.4631 128.452 36.5438ZM138.484 36.5438C138.467 35.9468 138.275 35.368 137.932 34.8796C137.588 34.3914 137.108 34.0151 136.552 33.7982C135.995 33.5811 135.387 33.5328 134.804 33.6595C134.22 33.7862 133.687 34.0819 133.27 34.51C132.854 34.938 132.573 35.4794 132.463 36.0663C132.352 36.6531 132.417 37.2595 132.65 37.8096C132.882 38.3598 133.271 38.8291 133.769 39.1591C134.267 39.4891 134.851 39.6651 135.448 39.6651C135.857 39.676 136.264 39.602 136.643 39.4479C137.022 39.2938 137.365 39.0628 137.65 38.7696C137.935 38.4763 138.156 38.1271 138.3 37.744C138.443 37.361 138.506 36.9523 138.484 36.5438Z" fill="#252525"/>
<path d="M144.291 26.4065C144.291 25.9366 144.43 25.4772 144.691 25.0865C144.952 24.6958 145.323 24.3912 145.757 24.2114C146.191 24.0315 146.669 23.9845 147.13 24.0762C147.591 24.1679 148.014 24.3941 148.347 24.7264C148.679 25.0587 148.905 25.4821 148.997 25.943C149.089 26.4039 149.041 26.8816 148.862 27.3158C148.682 27.7499 148.377 28.121 147.987 28.3821C147.596 28.6432 147.137 28.7825 146.667 28.7825C146.038 28.7763 145.438 28.524 144.993 28.0797C144.549 27.6355 144.297 27.0347 144.291 26.4065ZM144.691 29.9439H148.652V43.1439H144.685L144.691 29.9439Z" fill="#252525"/>
<path d="M165.751 36.5438C165.796 37.4162 165.669 38.289 165.377 39.1121C165.084 39.9352 164.631 40.6922 164.045 41.3398C163.459 41.9873 162.75 42.5126 161.96 42.8854C161.17 43.2581 160.314 43.471 159.441 43.5118C158.707 43.5518 157.974 43.4281 157.294 43.1496C156.614 42.8709 156.004 42.4445 155.509 41.9012V48.4225H151.549V29.9438H155.509V31.1838C156.004 30.6409 156.614 30.2148 157.294 29.9365C157.974 29.6581 158.708 29.5345 159.441 29.5745C160.314 29.6152 161.17 29.828 161.961 30.2008C162.751 30.5736 163.459 31.0989 164.046 31.7466C164.632 32.3944 165.085 33.1517 165.377 33.975C165.67 34.7982 165.797 35.6713 165.751 36.5438ZM161.791 36.5438C161.775 35.9261 161.578 35.3266 161.223 34.8204C160.869 34.3142 160.373 33.9238 159.798 33.6982C159.222 33.4725 158.593 33.4214 157.989 33.5516C157.385 33.6816 156.833 33.9869 156.401 34.4293C155.97 34.8718 155.679 35.4316 155.564 36.0389C155.449 36.6461 155.516 37.2736 155.756 37.843C155.996 38.4125 156.399 38.8984 156.914 39.2401C157.429 39.5817 158.033 39.764 158.651 39.7638C159.075 39.7828 159.498 39.7117 159.893 39.5554C160.288 39.3993 160.646 39.1613 160.942 38.8573C161.239 38.5532 161.467 38.19 161.614 37.7913C161.76 37.3926 161.82 36.9674 161.791 36.5438Z" fill="#252525"/>
<path d="M177.971 39.1824C177.971 42.2184 175.332 43.5118 172.481 43.5118C171.329 43.616 170.173 43.3726 169.161 42.8124C168.149 42.2524 167.329 41.4018 166.805 40.3704L170.236 38.4171C170.375 38.8938 170.673 39.3086 171.08 39.5919C171.488 39.8754 171.981 40.0104 172.476 39.9744C173.425 39.9744 173.901 39.6838 173.901 39.1571C173.901 37.7038 167.407 38.4704 167.407 33.9038C167.407 31.0251 169.836 29.5744 172.581 29.5744C173.613 29.5418 174.635 29.7866 175.54 30.2832C176.445 30.78 177.201 31.5104 177.728 32.3984L174.349 34.2198C174.201 33.874 173.955 33.5795 173.64 33.373C173.325 33.1664 172.957 33.0571 172.581 33.0584C171.895 33.0584 171.472 33.3251 171.472 33.7971C171.477 35.3024 177.971 34.2984 177.971 39.1824Z" fill="#252525"/>
<path d="M192.436 29.9438V43.1438H188.476V41.9025C188.018 42.4502 187.438 42.8818 186.782 43.1618C186.126 43.4418 185.414 43.5622 184.702 43.5132C182.036 43.5132 179.769 41.6132 179.769 38.0465V29.9438H183.729V37.4665C183.696 37.7809 183.732 38.0988 183.834 38.3978C183.936 38.697 184.102 38.9704 184.321 39.1988C184.54 39.4272 184.805 39.6052 185.1 39.7205C185.393 39.8358 185.709 39.8857 186.025 39.8665C187.477 39.8665 188.48 39.0225 188.48 37.1478V29.9478L192.436 29.9438Z" fill="#252525"/>
<path d="M215.142 35.0385V43.1425H211.182V35.3812C211.182 34.0612 210.549 33.2172 209.282 33.2172C207.962 33.2172 207.222 34.1412 207.222 35.6985V43.1425H203.264V35.3812C203.264 34.0612 202.63 33.2172 201.362 33.2172C200.042 33.2172 199.304 34.1412 199.304 35.6985V43.1425H195.344V29.9425H199.304V31.1558C199.714 30.6176 200.253 30.1906 200.87 29.9142C201.489 29.6377 202.166 29.5205 202.841 29.5732C203.518 29.54 204.193 29.683 204.8 29.9882C205.405 30.2933 205.921 30.7504 206.298 31.3145C206.737 30.7242 207.318 30.2549 207.988 29.9504C208.657 29.6458 209.393 29.5161 210.126 29.5732C213.157 29.5745 215.142 31.7385 215.142 35.0385Z" fill="#252525"/>
<path d="M218.492 29.8624C220.115 29.8624 221.431 28.5467 221.431 26.9238C221.431 25.3008 220.115 23.9851 218.492 23.9851C216.869 23.9851 215.553 25.3008 215.553 26.9238C215.553 28.5467 216.869 29.8624 218.492 29.8624Z" fill="#252525"/>
</svg>

<svg width="262" height="70" fill="none" xmlns="http://www.w3.org/2000/svg"><rect x=".569" width="260.861" height="70" rx="35" fill="#fff"/><path d="M67.701 32.827a4.874 4.874 0 0 0-1.394 3.905l-.024-.024a5.791 5.791 0 0 1-6.259 6.259l.024.023a4.905 4.905 0 0 0-3.92 8.353 4.904 4.904 0 0 0 8.348-3.929l.025.024a5.793 5.793 0 0 1 6.259-6.258l-.025-.024a4.896 4.896 0 0 0 5.038-6.548 4.894 4.894 0 0 0-8.068-1.781h-.004Z" fill="#252525"/><path d="m57.865 39.847-.025-.024a4.842 4.842 0 0 0 5.303-5.3l.025.025a5.793 5.793 0 0 1 6.259-6.259l-.026-.024a4.903 4.903 0 1 0-4.423-4.424l-.024-.025a5.792 5.792 0 0 1-6.26 6.259l.025.025a4.843 4.843 0 0 0-5.303 5.299l-.024-.024a5.795 5.795 0 0 1-6.259 6.258l.024.024a4.903 4.903 0 1 0 4.425 4.424l.025.024a5.792 5.792 0 0 1 6.258-6.258Z" fill="#252525"/><path d="M48.93 37.17a4.869 4.869 0 0 0 1.392-3.905l.026.024a5.791 5.791 0 0 1 6.261-6.258l-.025-.024a4.903 4.903 0 1 0-4.424-4.424l-.024-.024a5.791 5.791 0 0 1-6.259 6.258l.024.024a4.895 4.895 0 1 0 3.03 8.33h-.002Zm41.302-13.298h3.96v19.27h-3.96v-19.27Zm6.203 12.672a6.997 6.997 0 1 1 6.996 6.968 6.913 6.913 0 0 1-6.477-4.287 6.915 6.915 0 0 1-.52-2.681Zm10.032 0a3.04 3.04 0 0 0-3.68-2.884 3.04 3.04 0 0 0-2.341 2.406 3.031 3.031 0 0 0 2.985 3.599 2.967 2.967 0 0 0 2.202-.895 2.971 2.971 0 0 0 .834-2.226Zm19.742-6.6v12.533c0 4.435-3.458 6.31-6.969 6.31a6.747 6.747 0 0 1-6.256-3.2l3.379-1.954a3.01 3.01 0 0 0 3.009 1.663 2.63 2.63 0 0 0 2.983-2.824v-1.207a4.688 4.688 0 0 1-3.855 1.716 6.706 6.706 0 0 1-6.497-6.705 6.706 6.706 0 0 1 6.497-6.704 4.686 4.686 0 0 1 3.855 1.716V29.94l3.854.003Zm-3.853 6.334a3.2 3.2 0 1 0-3.193 3.067 2.98 2.98 0 0 0 2.276-.825 2.987 2.987 0 0 0 .917-2.242Zm6.096.266a6.995 6.995 0 0 1 13.855-1.403 6.998 6.998 0 0 1-6.859 8.371 6.913 6.913 0 0 1-6.477-4.287 6.922 6.922 0 0 1-.519-2.681Zm10.032 0a3.04 3.04 0 0 0-5.214-2.034 3.036 3.036 0 0 0 .499 4.65 3.04 3.04 0 0 0 1.679.505 2.964 2.964 0 0 0 3.036-3.121Zm5.807-10.137a2.376 2.376 0 1 1 2.376 2.375 2.401 2.401 0 0 1-2.376-2.375Zm.4 3.537h3.961v13.2h-3.967l.006-13.2Zm21.06 6.6a6.639 6.639 0 0 1-3.791 6.342 6.629 6.629 0 0 1-2.519.626 4.952 4.952 0 0 1-3.932-1.61v6.52h-3.96V29.944h3.96v1.24a4.956 4.956 0 0 1 3.932-1.61 6.635 6.635 0 0 1 4.605 2.173 6.623 6.623 0 0 1 1.705 4.797Zm-3.96 0a3.143 3.143 0 0 0-6.227-.505 3.14 3.14 0 0 0 3.087 3.725 3.009 3.009 0 0 0 2.291-.907 3.018 3.018 0 0 0 .849-2.313Zm16.18 2.638c0 3.036-2.639 4.33-5.49 4.33a5.779 5.779 0 0 1-5.676-3.142l3.431-1.953a2.172 2.172 0 0 0 2.24 1.557c.949 0 1.425-.29 1.425-.817 0-1.453-6.494-.687-6.494-5.253 0-2.879 2.429-4.33 5.174-4.33a5.773 5.773 0 0 1 5.147 2.824l-3.379 1.822a1.91 1.91 0 0 0-1.768-1.162c-.686 0-1.109.267-1.109.74.005 1.504 6.499.5 6.499 5.384Zm14.465-9.238v13.2h-3.96v-1.241a4.523 4.523 0 0 1-3.774 1.61c-2.666 0-4.933-1.9-4.933-5.466v-8.103h3.96v7.523a2.18 2.18 0 0 0 1.371 2.254c.293.115.609.165.925.146 1.452 0 2.455-.844 2.455-2.72v-7.2l3.956-.003Zm22.706 5.094v8.105h-3.96V35.38c0-1.32-.633-2.164-1.9-2.164-1.32 0-2.06.924-2.06 2.482v7.444h-3.958V35.38c0-1.32-.634-2.164-1.902-2.164-1.32 0-2.058.924-2.058 2.482v7.444h-3.96v-13.2h3.96v1.213a4.052 4.052 0 0 1 3.537-1.583 3.932 3.932 0 0 1 3.457 1.741 4.347 4.347 0 0 1 3.828-1.74c3.031 0 5.016 2.164 5.016 5.464Zm3.35-5.176a2.939 2.939 0 1 0 0-5.877 2.939 2.939 0 0 0 0 5.877Z" fill="#252525"/></svg>
